icons/solid/video-camera.svg

<svg width="24" height="24" viewBox="0 0 24 24" fill="none" xmlns="http://www.w3.org/2000/svg">
<path fill-rule="evenodd" clip-rule="evenodd" d="M5 5C3.34315 5 2 6.34315 2 8V16C2 17.6569 3.34315 19 5 19H14C15.6569 19 17 17.6569 17 16V14.4142L19.4393 16.8536C20.3843 17.7985 22 17.1293 22 15.7929V8.20711C22 6.87075 20.3843 6.2015 19.4393 7.14645L17 9.58579V8C17 6.34315 15.6569 5 14 5H5Z" fill="currentColor"/>
</svg>

<svg width="24" height="24" fill="none" xmlns="http://www.w3.org/2000/svg"><path fill-rule="evenodd" clip-rule="evenodd" d="M5 5a3 3 0 00-3 3v8a3 3 0 003 3h9a3 3 0 003-3v-1.586l2.44 2.44c.944.945 2.56.275 2.56-1.061V8.207c0-1.336-1.616-2.006-2.56-1.06L17 9.585V8a3 3 0 00-3-3H5z" fill="currentColor"/></svg>
